X:112
T:Return To Chernobyl
M:4/4
L:1/8
C:Vincent Blin
Z:posted by Trish O'Neil 6/97
K:Dm
D2DF ADFA|DFAD FAFD|A,2A,C EA,CE| A,CEA, DGFE|D2DF ADFA|DFAD FAF=B|
c2Gc EcGe|[1fedc dcAF :|[2 fedc dcAc |
|d2fd gdfd|d2fg gfdc|B2fB gBfB|eeef eABA| [1 d2fd gdfd|d2fg gdfg|
aAAa gAAg|fAAf eABA:| [2d2fA dfdA|BBfB dfdB|ccgc egcg|ag
